assets/gi/gi-abstract-087.svg

<svg xmlns="http://www.w3.org/2000/svg" width="100%" height="100%" viewBox="-35.84 -35.84 583.68 583.68"><path d="m21,21v71.6751h71.675v-71.6751h-71.675zm104.575,0v71.6751h260.85v-71.6751h-260.85zm293.75,0v71.6751h71.675v-71.6751h-71.675zm-398.325,104.575v260.85h71.675v-260.85h-71.675zm104.575,0v260.85h31.8719c2.6667-45.8772 36.6737-83.2489 80.9281-91.2094v-78.4313c-44.2544-7.9605-78.2614-45.3321-80.9281-91.2094h-31.8719zm228.9781,0c-2.6667,45.8773-36.6738,83.2489-80.9281,91.2094v78.4313c44.2543,7.9605 78.2614,45.3321 80.9281,91.2094h31.8719v-260.85h-31.8719zm64.7719,0v260.85h71.675v-260.85h-71.675zm-398.325,293.75v71.675h71.675v-71.675h-71.675zm104.575,0v71.675h260.85v-71.675h-260.85zm293.75,0v71.675h71.675v-71.675h-71.675z"/></svg>

<svg xmlns="http://www.w3.org/2000/svg" width="100%" height="100%" viewBox="-35.84 -35.84 583.68 583.68"><path d="M21 21v71.675h71.675V21H21zm104.575 0v71.675h260.85V21h-260.85zm293.75 0v71.675H491V21h-71.675zM21 125.575v260.85h71.675v-260.85H21zm104.575 0v260.85h31.872c2.667-45.877 36.674-83.249 80.928-91.21v-78.43c-44.254-7.961-78.261-45.333-80.928-91.21h-31.872zm228.978 0c-2.667 45.877-36.674 83.249-80.928 91.21v78.43c44.254 7.961 78.261 45.333 80.928 91.21h31.872v-260.85h-31.872zm64.772 0v260.85H491v-260.85h-71.675zM21 419.325V491h71.675v-71.675H21zm104.575 0V491h260.85v-71.675h-260.85zm293.75 0V491H491v-71.675h-71.675z"/></svg>
